X:1
T:Chryste ozdobo pocztu anielskiego
T:Chryste ozdobo pocztu anielskiego Christe sanctorum decus angelorum 
T:t. Rabanus Maurus tłum. ks. Stanisław Grochowski Hymny, prozy i cantica kościelne, Kraków 1599 
T:m. Michael Praetorius Hymnodia Sionia (1611): No. 7 8 
C:Michael Praetorius
Z:Rabanus Maurus
%%score [ 1 2 3 4 ]
L:1/8
Q:1/4=120
M:4/4
K:D
V:1 treble nm="MusicXML Part"
V:2 treble nm="MusicXML Part"
V:3 treble-8 nm="MusicXML Part"
V:4 bass nm="MusicXML Part"
V:1
"^1.\nC\nhryste ozdobo pocztu anielskiego,\nStwórco i rządco narodu ludzkiego,\nKiedy przyjdzie czas, przyjmij nas na swoje\nwieczne pokoje.\n\n\n2.\nP\nosyłaj prosim do tego kościoła,\nStróża Michała świętego anioła,\nBy się nam dobra przymnażało wszego\nz gościa takiego.\n" (E4 G4) E2 (G4 (F2 E2) (E2) F4) | %1
w: 1.Chry- * ste  o- zdo- * bo *|
w: 2.Po sy- łaj pro- * * sim *|
 z2 D2 F2 A2 (G2 F2) (E2 F2) F4 | B2 A2 B2 (d4 B2) A4 A2 G2 A2 B2 A4 F4 | %3
w: po- cztu  a- nie- * lskie- * go,|1.Stwó- rco  i rzą- * dco na- ro- du  lu- dzkie- go,|
w: do te- go ko- * ścio- * ła,|2.Stró- ża Mi- cha- * ła świę- te- go a- nio- ła|
 z2 A4 F2 (G2 A4) (F2 G2 E4 ^D2) E4 | z2 G4 (E2 D2) E2 G2 (F2 E4) D4 | %5
w: Kie- dy przy- * jdzie * * * czas,|1.przy- jmij * nas na swo- * je|
w: By się nam * do- * * * bra|2.przy- mna- * ża- ło wsze- * go|
 (F2 G2 A4) G2 (F2 G2) (E4 ^DC D4) E16 | %6
w: Wie- * * czne  po- * ko- * * * je.|
w: Z go- * * ścia ta- * kie- * * * go.|
"^3.\nR\nozkaż przybywać i Gabryjelowi,\nNa odpór przeciw staremu wężowi,\nNiech conajczęściej nawiedza te progi\nPoseł Twój drogi.\n\n\n\n4.\nR\nacz nam posyłać i ducha onego\nRafała, ludziom zdrowie noszącego,\nBy nasze sprawy kierował i co by\nLeczył choroby.\n" (E4 G4) E2 G4 (F2 E2) (E2 F4) | %7
w: 3.Ro- * zkaż przy- by- * wać *|
w: 4.Racz * nam po- sy- * łać *|
 z2 D2 F2 A2 (G2 F2) (E2 F2) F4 | B2 A2 B2 (d4 B2) A4 A2 G2 A2 B2 A4 F4 | %9
w: i Ga- bry- je- * lo- * wi,|3.Na od- pór prze- * ciw sta- re- mu wę- żo- wi,|
w: i du- cha o- * ne- * go,|4.Ra- fa- ła, lu- * dziom zdro- wie no- szą- ce- go,|
 z2 A4 F2 (G2 A4) (F2 G2 E4 ^D2) E4 | z2 G4 (E2 D2) E2 G2 (F2 E4) D4 | %11
w: Niech co- naj * czę- * * * ściej|3.na- wie- * dza te pro- * gi|
w: By na- sze * spra- * * * wy|4.kie- ro- * wał i co- * by|
 (F2 G2 A4) G2 (F2 G2) (E4 ^DC D4) E16 | %12
w: Po- * * seł Twój * dro- * * * gi.|
w: Le- * * czył cho- * ro- * * * by.|
"^5.\nA\n najważniejsza przyczyna z prośbami\nNiech będzie Panie Matki Twej za nami,\nI duchów górnych \ni wszystkich cnych świętych \ndo nieba wziętych.\n\n\n\n6.\nR\nacz to nam zdarzyć Ojcze litościwy\nz Synem i z Duchem Boże nasz prawdziwy,\nKtórego sława po wszym świecie słynie\nI nie zaginie.\n\n" (E4 (G4) E2) G4 (F2 E2) (E2 F4) | %13
w: 5.A naj- * wa- żniej- * sza *|
w: 6.Racz * to nam zda- * rzyć *|
 z2 D2 F2 A2 (G2 F2) (E2 F2) F4 | B2 A2 B2 (d4 B2) A4 A2 G2 A2 B2 A4 F4 | %15
w: przy- czy- na z pro- * śba- * mi|5.Niech bę- dzię  Pa- * nie Ma- tki Twej  za na- mi,|
w: O- jcze li- to- * ści- * wy,|6.z Sy- nem i z Du- * chem Bo- że nasz pra- wdzi- wy,|
 z2 A4 F2 (G2 A4) (F2 G2 E4 ^D2) E4 | z2 G4 (E2 D2) E2 G2 (F2 E4) D4 | %17
w: I du- chów * gó- * * * rnych|5.i wszy- * stkich  cnych świę- * tych|
w: Któ- re- go * sła- * * * wa|6.po wszym * świe- cie sły- * nie|
 (F2 G2 A4) G2 (F2 G2) (E4 ^DC D4) E16 |] %18
w: Do * * nie- ba * wzię- * * * tych.|
w: I * * nie za- * gi- * * * nie.|
V:2
 B,8 C2 D2 (D3 C B,4) D4 | z2 D4 C2 B,2 B,2 (B,>C ^D2) D4 | %2
w: 1.Chry ste o- zdo- * * bo|po- cztu a- nie- lskie- * * go,|
w: 2.Po- sy- łaj pro- * * sim|do te- go ko- ścio- * * ła,|
 D2 C2 E2 F4 D4 D3 C B,2 D2 (D3 C/B,/ C2) B,4 | z2 C4 D2 B,2 (C4 D4 =C2 B,4) B,4 | %4
w: 1.Stwó- rco i rzą- dco na- ro- du lu- dzkie- * * * go,|Kie- dy przy- jdzie * * * czas,|
w: 2.Stró- ża Mi- cha- ła świę- te- go a- nio- * * * ła|By się nam do- * * * bra|
 z2 E4 A,2 (B,2 C2 D2) D (D2 C/B,/ C2) A,4 | D4 =C4 B,2 (B,4 A,2 B,8) B,16 | %6
w: 1.przy- jmij nas * * na swo- * * * je|Wie- czne po- ko- * * je.|
w: 2.przy- mna- ża- * * ło wsze- * * * go|Z go- ścia ta- kie- * * go.|
 B,8 C2 D2 (D3 C B,4) D4 | z2 D4 C2 B,2 B,2 (B,>C ^D2) D4 | %8
w: 3.Ro- zkaż przy- by- * * wać|i Ga- bry- je- lo- * * wi,|
w: 4.Racz nam po- sy- * * łać|i du- cha o- ne- * * go,|
 D2 C2 E2 F4 D4 D3 C B,2 D2 (D3 C/B,/ C2) B,4 | z2 C4 D2 B,2 (C4 D4 =C2 B,4) B,4 | %10
w: 3.Na od- pór prze- ciw sta- re- mu wę- żo- * * * wi,|Niech co- naj- czę- * * * ściej|
w: 4.Ra- fa- ła, lu- dziom zdro- wie no- szą- ce- * * * go,|By na- sze spra- * * * wy|
 z2 E4 A,2 (B,2 C2 D2) D (D2 C/B,/ C2) A,4 | D4 =C4 B,2 (B,4 A,2 B,8) B,16 | %12
w: 3.na- wie- dza * * te pro- * * * gi|Po- seł Twój dro- * * gi.|
w: 4.kie- ro- wał * * i co- * * * by|Le- czył cho- ro- * * by.|
 B,8 C2 D2 (D3 C B,4) D4 | z2 D4 C2 B,2 B,2 (B,>C ^D2) D4 | %14
w: 5.A- naj- wa- żniej- * * sza|przy- czy- na z pro- śba- * * mi|
w: 6.Racz to nam zda- * * rzyć|O- jcze li- to- ści- * * wy,|
 D2 C2 E2 F4 D4 D3 C B,2 D2 (D3 C/B,/ C2) B,4 | z2 C4 D2 B,2 (C4 D4 =C2 B,4) B,4 | %16
w: 5.Niech bę- dzie Pa- nie Ma- tki Twej za na- * * * mi,|I du- chów  gó- * * * rnych|
w: 6.z Sy- nem i z Du- chem Bo- że nasz pra- wdzi- * * * wy,|Któ- re- go sła- * * * wa|
 z2 E4 A,2 (B,2 C2 D2) D (D2 C/B,/ C2) A,4 | D4 =C4 B,2 (B,4 A,2 B,8) B,16 |] %18
w: 5.i wszy- stkich * * cnych  świę- * * * tych|Do nie ba wzię- * * tych.|
w: 6.po wszym  świe- * * cie sły- * * * nie|I nie za- gi- * * nie.|
V:3
 z2 E4 G2 A2 (B4 A2 G4) A4 | z2 B2 (AG/F/ E2) (G>A BAG) G F2 B4 | %2
w: 1.Chry- ste, o- zdo- * * bo|po- cztu * * * a- * * * * nie- lskie- go,|
w: 2.Po sy- łaj pro- * * sim|do- te- * * * go * * * * ko- ścio- ła,|
 (F>G A2) G2 A4 G4 F2 E2 G2 F2 G2 E4 D4 | z2 A4 (BA GF E4) B2 (B2 AG F4) ^G4 | %4
w: 1.Stwó- * * rco   i rzą- dco  na- do- du lu- dzkie- go,|Kie- dy * * * * przy- jdzie * * * czas,|
w: 2.Stró- * * ża Mi- cha- ła świę- te- go a- nio- ła|By- się * * * * nam do- * * * bra|
 z2 B3 B (E2 F2 A2 B2) A2 A4 F4 | A2 D2 E2 E4 F2 E2 E E F8 ^G16 | z2 E4 G2 A2 (B4 A2 G4) A4 | %7
w: 1.przy- jmij  nas, przy- jmij nas na swo- je|Wie- czne po- ko- je, wie- czne po- ko- je.|3.Ro- zkaż przy- by- * * wać|
w: 2.przy- mna- ża- * * * ło wsze- go|Z go- ścia ta- kie- go, z go- ścia- ta- kie- go.|4.Racz nam po- sy- * * łać|
 z2 B2 (AG/F/ E2) (G>A BAG) G F2 B4 | (F>G A2) G2 A4 G4 F2 E2 G2 F2 G2 E4 D4 | %9
w: i Ga- * * * bry- * * * * je- lo- wi,|3.Na- * * od- pór prze- ciw sta- re- mu wę- żo- wi,|
w: i du- * * * cha * * * * o- ne- go,|4.Ra- * * fa- ła, lu- dziom  zdro- wie no- szą- ce- go,|
 z2 A4 (BA GF E4) B2 (B2 AG F4) ^G4 | z2 B3 B (E2 F2 A2 B2) A2 A4 F4 | %11
w: Niech co- * * * * naj- czę- * * * ściej|3.na- wie- dza, na- wie- dza te pro- gi|
w: By na- * * * * sze spra- * * * wy|4.kie- ro- wał, kie- ro- wał   i co- by|
 A2 D2 E2 E4 F2 E2 E E F8 ^G16 | z2 E4 G2 A2 (B4 A2 G4) A4 | z2 B2 (AG/F/ E2) (G>A BAG) G F2 B4 | %14
w: Po- seł Twój dro- gi, po- seł Twój  dro- gi|5.A naj- wa- żniej- * * sza|przy- czy- * * * na * * * * z pro- śba- mi|
w: Le- czył  cho- ro- by, le- czył  cho- ro- by.|6.Racz to nam zda- * * rzyć|O- jcze * * * li- * * * * to- ści- wy,|
 (F>G A2) G2 A4 G4 F2 E2 G2 F2 G2 E4 D4 | z2 A4 (BA GF E4) B2 (B2 AG F4) ^G4 | %16
w: 5.Niech * * bę- dzie Pa- nie Ma- tki Twej za na- mi,|I du- * * * * chów  gó- * * * rnych|
w: 6.z Sy- * * nem i z Du- chem Bo- że nasz pra- wdzi- wy,|Któ- re- * * * * go sła- * * * wa|
 z2 B3 B E2 F2 A2 B2 A2 A4 F4 | A2 D2 E2 E4 F2 E2 E E F8 ^G16 |] %18
w: 5.i wszy- stkich  i wszy- stkich cnych świę- tych|Do nie- ba wzię- tych,  do nie- ba wzię- tych.|
w: 6.po wszym świe- cie, wszym świe- cie sły- nie|I nie za- gi- nie, i nie za- gi- nie.|
V:4
 E,8 A,,2 (G,,A,, B,,C, D,2) E,4 D,4 | z2 (B,,>C, D,2) A,,2 (E,2 ^D,2 E,) E, B,,2 B,,4 | %2
w: 1.Chry- ste o- * * * * zdo- bo|po- * * cztu   a- * * nie- lskie- go,|
w: 2.Po- sy- łaj * * * * pro- sim|do- * * te- go * * ko- ścio- ła,|
 B,,2 (F,2 E,2 D,4) G,,2 D,4 A,,2 E, E, D,2 G,,2 A,,4 B,,4 | %3
w: 1.Stwó- rco * * i rzą- dco na- ro- du lu- dzkie- go,|
w: 2.Stró- ża * * Mi- cha- ła świę- te- go a- nio- ła|
 z2 F,3 E, D,2 E,2 A,,4 (B,,>A,, G,,2 A,,2) B,,4 E,4 | z2 E,4 =C,2 (B,,2 A,,2 G,,2) D,2 A,,4 D,4 | %5
w: Kie- dy przy- jdzie czas, przy- * * * jdzie czas,|1.przy- jmij nas * * na swo- je|
w: By- się nam do- bra, nam * * * do- bra|2.przy- mna- ża- * * ło- wsze- go|
 D,2 B,,2 A,,4 (E,2 ^D,2 E,2 =C,2 B,,8) E,16 | E,8 A,,2 (G,,A,, B,,C, D,2) E,4 D,4 | %7
w: Wie- czne po- ko- * * * * je.|3.Ro- zkaż przy- * * * * by- wać|
w: Z go- ścia ta- kie- * * * * go.|4.Racz nam po * * * * sy- łać|
 z2 (B,,>C, D,2) A,,2 (E,2 ^D,2 E,) E, B,,2 B,,4 | %8
w: i * * Ga- bry- * * je- lo- wi,|
w: i * * du- cha * * o- ne- go,|
 B,,2 (F,2 E,2 D,4) G,,2 D,4 A,,2 E, E, D,2 G,,2 A,,4 B,,4 | %9
w: 3.Na od- * * pór prze- ciw sta- re- mu wę- żo- wi,|
w: 4.Ra- fa- * * ła, lu- dziom zdro- wie no- szą- ce- go,|
 z2 (F,3 E,) (D,2 E,2 A,,4) (B,,>A,, G,,2 A,,2) B,,4 E,4 | %10
w: Niech co naj- czę- ściej  naj- * * * czę- ściej|
w: By * na- * * sze * * * spra- wy|
 z2 E,4 =C,2 (B,,2 A,,2 G,,2) D,2 A,,4 D,4 | D,2 B,,2 A,,4 (E,2 ^D,2 E,2 =C,2 B,,8) E,16 | %12
w: 3.na- wie- dza * * te- pro- gi|Po- seł Twój dro- * * * * gi.|
w: 4.kie- ro- wał * * i co- by|Le- czył cho- ro- * * * * by.|
 E,8 A,,2 (G,,A,, B,,C, D,2) E,4 D,4 | z2 (B,,>C, D,2) A,,2 (E,2 ^D,2 E,) E, B,,2 B,,4 | %14
w: 5.A naj- wa * * * * żniej- sza|przy- * * czy- na * * z pro- śba- mi|
w: 6.Racz to nam * * * * zda- rzyć|O- * * jcze li- * * to- ści- wy,|
 B,,2 (F,2 E,2 D,4) G,,2 D,4 A,,2 E, E, D,2 G,,2 A,,4 B,,4 | %15
w: 5.Niech bę- * * dzie Pa- nie Ma- tki Twej za na- mi,|
w: 6.z Sy- nem * * i z Du- chem Bo- że nasz pra- wdzi- wy,|
 z2 (F,3 E,) (D,2 E,2 A,,4) (B,,>A,, G,,2 A,,2) B,,4 E,4 | %16
w: I * du- * * chów * * * gór- nych|
w: Któ- * re- * * go * * * sła- wa|
 z2 E,4 =C,2 (B,,2 A,,2 G,,2) D,2 A,,4 D,4 | D,2 B,,2 A,,4 (E,2 ^D,2 E,2 =C,2 B,,8) E,16 |] %18
w: 5.i wszy- stkich * * cnych świę- tych|Do nie- ba wzię- * * * * tych.|
w: 6.po wszym świe- * * cie sły- nie|I nie za- gi- * * * * nie.|

